X:130
T:Bateuse, The
T:Dance
S:John Moore's Book 2
Z:Transcribed by Edmund Spriggs 05/2021
%%VWML: Moore1-4494-p100-0
F:http://www.vwml.org/record/Moore2/4494/p100
M:6/8
K:C
There should be a quaver rest after the last note in the second strain.
L:1/8
K:G
G/A/|B2B {c/}BAB|d2^c =c2A|B2B Bcd|A2A Aag|
f2f fef|g2 g gfe|ded cBA|G2GG2|]
B2e d2B|A2e d2c|B2c def|g2g gfg|b2a a2g|
fga gfe|fga b^c'd'|aba gfe|d2d d2|]

